docs/svgs/go.svg

<svg viewBox="0 0 24 24" height="24px" width="24px" fill="#44739e" xmlns="http://www.w3.org/2000/svg"><title>hue:go</title><desc>Source: https://github.com/arallsopp/hass-hue-icons</desc><path d="M 17.152344 15.757812 C 14.257812 13.714844 10.300781 9.753906 8.253906 6.855469 C 6.179688 3.917969 6.8125 3.125 9.726562 5.148438 C 12.683594 7.199219 16.796875 11.316406 18.847656 14.277344 C 20.875 17.195312 20.085938 17.832031 17.152344 15.757812 M 19.875 14.015625 C 17.789062 10.605469 13.390625 6.207031 9.984375 4.121094 C 8.371094 3.132812 7.253906 2.800781 6.726562 3.113281 C 4.488281 4.929688 3 7.96875 3 11.078125 C 3 14.167969 4.414062 16.929688 6.628906 18.75 L 6.375 18.75 C 5.757812 18.75 5.25 19.253906 5.25 19.875 C 5.25 20.492188 5.757812 21 6.375 21 L 12.277344 21 C 12.351562 21 12.421875 20.992188 12.488281 20.976562 C 12.632812 20.984375 12.769531 21 12.914062 21 C 15.980469 21 19.070312 19.472656 20.886719 17.28125 C 21.199219 16.753906 20.863281 15.632812 19.875 14.015625 "/></svg>

<svg viewBox="0 0 24 24" height="24px" width="24px" fill="#44739e" xmlns="http://www.w3.org/2000/svg"><title>hue:go</title><desc>Source: https://github.com/arallsopp/hass-hue-icons</desc><path d="M17.15,15.76c-2.89-2.04-6.85-6-8.9-8.9C6.18,3.92,6.81,3.12,9.73,5.15c2.96,2.05,7.07,6.17,9.12,9.13 C20.88,17.2,20.09,17.83,17.15,15.76 M19.88,14.02c-2.09-3.41-6.48-7.81-9.89-9.89C8.37,3.13,7.25,2.8,6.73,3.11 C4.49,4.93,3,7.97,3,11.08c0,3.09,1.41,5.85,3.63,7.67H6.38c-0.62,0-1.12,0.5-1.12,1.12c0,0.62,0.51,1.12,1.12,1.12h5.9 c0.07,0,0.14-0.01,0.21-0.02c0.14,0.01,0.28,0.02,0.43,0.02c3.07,0,6.16-1.53,7.97-3.72C21.2,16.75,20.86,15.63,19.88,14.02"/></svg>
